/* XPM */
static char *east_wall[] = {
/* width height ncolors chars_per_pixel */
"64 64 2 1",
/* colors */
". c #FFFF00",
"# c #808000",
/* pixels */
"################################################################",
"#..............................................................#",
"#..............................................................#",
"#..............................................................#",
"#..............................................................#",
"#..............................................................#",
"#..............................................................#",
"#..............................................................#",
"#..............................................................#",
"#..............................................................#",
"#..............................................................#",
"#..............................................................#",
"#..............................................................#",
"#..............................................................#",
"#..............................................................#",
"#..............................................................#",
"#..............................................................#",
"#..............................................................#",
"#..............................................................#",
"#..............................................................#",
"#..............................................................#",
"#..............................................................#",
"#..............................................................#",
"#..............................................................#",
"#..............................................................#",
"#..............................................................#",
"#..............................................................#",
"#..............................................................#",
"#..............................................................#",
"#..............................................................#",
"#..............................................................#",
"#..............................................................#",
"#..............................................................#",
"#..............................................................#",
"#..............................................................#",
"#..............................................................#",
"#..............................................................#",
"#..............................................................#",
"#..............................................................#",
"#..............................................................#",
"#..............................................................#",
"#..............................................................#",
"#..............................................................#",
"#..............................................................#",
"#..............................................................#",
"#..............................................................#",
"#..............................................................#",
"#..............................................................#",
"#..............................................................#",
"#..............................................................#",
"#..............................................................#",
"#..............................................................#",
"#..............................................................#",
"#..............................................................#",
"#..............................................................#",
"#..............................................................#",
"#..............................................................#",
"#..............................................................#",
"#..............................................................#",
"#..............................................................#",
"#..............................................................#",
"#..............................................................#",
"#..............................................................#",
"################################################################",
};
