/* XPM */
static char *south_wall[] = {
/* width height ncolors chars_per_pixel */
"64 64 2 1",
/* colors */
". c #00FF00",
"# c #008000",
/* pixels */
"################################################################",
"#..............................................................#",
"#..............................................................#",
"#..............................................................#",
"#..............................................................#",
"#..............................................................#",
"#..............................................................#",
"#..............................................................#",
"#..............................................................#",
"#..............................................................#",
"#..............................................................#",
"#..............................................................#",
"#..............................................................#",
"#..............................................................#",
"#..............................................................#",
"#..............................................................#",
"#..............................................................#",
"#..............................................................#",
"#..............................................................#",
"#..............................................................#",
"#..............................................................#",
"#..............................................................#",
"#..............................................................#",
"#..............................................................#",
"#..............................................................#",
"#..............................................................#",
"#..............................................................#",
"#..............................................................#",
"#..............................................................#",
"#..............................................................#",
"#..............................................................#",
"#..............................................................#",
"#..............................................................#",
"#..............................................................#",
"#..............................................................#",
"#..............................................................#",
"#..............................................................#",
"#..............................................................#",
"#..............................................................#",
"#..............................................................#",
"#..............................................................#",
"#..............................................................#",
"#..............................................................#",
"#..............................................................#",
"#..............................................................#",
"#..............................................................#",
"#..............................................................#",
"#..............................................................#",
"#..............................................................#",
"#..............................................................#",
"#..............................................................#",
"#..............................................................#",
"#..............................................................#",
"#..............................................................#",
"#..............................................................#",
"#..............................................................#",
"#..............................................................#",
"#..............................................................#",
"#..............................................................#",
"#..............................................................#",
"#..............................................................#",
"#..............................................................#",
"#..............................................................#",
"################################################################",
};
