/* XPM */
static char *west_wall[] = {
/* width height ncolors chars_per_pixel */
"64 64 2 1",
/* colors */
". c #0000FF",
"# c #000080",
/* pixels */
"################################################################",
"#..............................................................#",
"#..............................................................#",
"#..............................................................#",
"#..............................................................#",
"#..............................................................#",
"#..............................................................#",
"#..............................................................#",
"#..............................................................#",
"#..............................................................#",
"#..............................................................#",
"#..............................................................#",
"#..............................................................#",
"#..............................................................#",
"#..............................................................#",
"#..............................................................#",
"#..............................................................#",
"#..............................................................#",
"#..............................................................#",
"#..............................................................#",
"#..............................................................#",
"#..............................................................#",
"#..............................................................#",
"#..............................................................#",
"#..............................................................#",
"#..............................................................#",
"#..............................................................#",
"#..............................................................#",
"#..............................................................#",
"#..............................................................#",
"#..............................................................#",
"#..............................................................#",
"#..............................................................#",
"#..............................................................#",
"#..............................................................#",
"#..............................................................#",
"#..............................................................#",
"#..............................................................#",
"#..............................................................#",
"#..............................................................#",
"#..............................................................#",
"#..............................................................#",
"#..............................................................#",
"#..............................................................#",
"#..............................................................#",
"#..............................................................#",
"#..............................................................#",
"#..............................................................#",
"#..............................................................#",
"#..............................................................#",
"#..............................................................#",
"#..............................................................#",
"#..............................................................#",
"#..............................................................#",
"#..............................................................#",
"#..............................................................#",
"#..............................................................#",
"#..............................................................#",
"#..............................................................#",
"#..............................................................#",
"#..............................................................#",
"#..............................................................#",
"#..............................................................#",
"################################################################",
};
